!!!COM: Mozart
!!!OTL: 12 Variations on "Ah Vous dirais-je, Maman" for the Piano
!!!Variation: 8 a
**function	**harm	**kern	**kern
*	*	*clefG2	*clefG2
*	*	*k[b-e-a-]	*k[b-e-a-]
*M2/4	*M2/4	*M2/4	*M2/4
*c:	*c:	*c:	*c:
=193	=193	=193	=193
2T	C:min	2r	8cc'L
.	.	.	8dd'J
.	.	.	8ee-'L
.	.	.	8ff'J
=194	=194	=194	=194
2T	C:min	2r	4gg
.	.	.	[4gg
=195	=195	=195	=195
*	*	*	*^
2T	F:min	8f'L	2aa-	4gg]
.	.	8g'J	.	.
.	.	8a-'L	.	[4ff
.	.	8b-'J	.	.
=196	=196	=196	=196	=196
2T	C:min	4cc	2gg	4ff]
.	.	4cc	.	[4ee-
=197	=197	=197	=197	=197
*	*	*clefF4	*	*
2T	G:7	8G'L	2ff	[4g 4ee-]
.	.	8A'J	.	.
.	.	8B'L	.	4g_ [4dd
.	.	8G'J	.	.
=198	=198	=198	=198	=198
4T	C:min	8c'L	2ee-	4g] 4dd]
.	.	8G'J	.	.
4T	A-:maj	8A-'L	.	[4cc
.	.	8E-'J	.	.
=199	=199	=199	=199	=199
4P	D:dim/b3	8F'L	2dd	4cc]
.	.	8D'J	.	.
4D	G:7	8G'L	.	4b
.	.	8GG'J	.	.
=200	=200	=200	=200	=200
2T	C:min	4C	4cc	4cc
*	*	*	*v	*v
.	.	4CC	4r
*-	*-	*-	*-
!!!EMD: Edited in humdrumR 0.7.0.3 on 2024-01-19
